X: 36127
T: Scollay's
R: reel
M: 4/4
K: Eminor
E3 F G3 A|BcBA GEGA|B2 E2 E2 G2|FGAF D3 F|
E3 F G3 A|BcBA GEGA|B3 c BAFA|G2 E2 e4:|
efge B2 B2|g2 g2 B4|c2 BA G2 G2|FGAF D3 F|
E3 F G3 A|BcBd e2 d2|B3 c BAFA|G2 E2 E4:|

